X:1
T:Amor per qual
T:Madalena Casulana
T:Source : Secondo libro de madrigali a quattro voci---Venetia---G.Scotto---1570. Editor : André Vierendeels (17/08/17).
T:Amor per qual
T:©
T:©
T:©
T:©
C:Madalena Casulana
Z:©
%%score [ 1 2 3 4 ]
L:1/8
Q:1/4=120
M:2/2
K:C
V:1 treble nm="Soprano" snm="S"
V:2 treble nm="Alto" snm="A"
V:3 treble-8 nm="Tenor 1" snm="T 1"
V:4 treble-8 nm="Tenor 2" snm="T 2"
V:1
 d8 | c4 z2 A2 | c4 B4 | A4 A4 | F4 D4 | _B8 | A4 _B4 | _B4 B4 | c8 | F4 z2 A2 | c2 A2 G4 | %11
w: A-|mor per|qual ca-|gion mi|mand' ia|ter-|ra, mi|mand' ia|ter-|ra, se|sai te son|
 _B4 A4 | A2 A2 A2 A2 | B4 ^c4 | d6 c2 | c2 e2 d4 | e2 e2 d2 d2 | c2 c2 c4 | c2 c2 B2 e2 | %19
w: fe- de-|le, E bra- mo|pa- ce-|mi ri-|trov' in guer-|ra, e mi ri-|trov' in guer-|ra, di te che|
 d2 c4 B2- | BA A3 G/F/ G2 | A4 z2 c2 | B2 e4 d2- | d2 c4 B2- | BA A3 ^G/^F/ G2 | A2 A2 A4 | %26
w: sei cru- de-||le, di|te che sei|_ cru- de-||le, ne voi|
 c4 c2 A2 | d4 c4 | z2 A2 B2 B2 | c4 c2 c2- | c2 _B2 A4 | G4 A4 | A4 z2 A2 | B2 B2 c4 | c2 c4 _B2 | %35
w: sia per me|pa- ce,|ma che sem-|pr'ar- da con|_ tua vi-|va fa-|ce, ma|che sem- pr'ar-|da con tua|
 A4 G4 | A8 | A8 |] %38
w: vi- va|fa-|ce.|
V:2
 A8 | A8 | z2 E2 G4 | F4 E2 E2 | D4 F4- | F4 E4 | F4 F4 | G6 F2 | _E8 | D4 z2 F2 | G2 F2 E4 | %11
w: A-|mor|per qual|ca- gion mi|mand' ia|_ ter-|ra, mi|mand' ia|ter-|ra, se|sai te son|
 D2 D3 ^C/B,/ C2 | D2 D2 ^F2 F2 | G4 G4 | A4 B2 G2 | A2 c4 B2 | c2 A2 A2 D2 | G2 A2 G4 | F4 z2 C2 | %19
w: fe- de- * * *|le, e bra- mo|pa- ce|mi- ri trov'|in guer- *|ra, e mi ri-|trov' in guer-|ra di|
 B,2 E2 D4 | C4 B,4 | A,2 C2 C4 | D2 G4 G2 | G8 | E8 | z2 F4 E2- | E2 A2 G2 FA- | AG/F/ G2 A2 E2 | %28
w: te che sei|cru- de-|le, di te|che sei cru-|de-|le,|ne voi|_ sia per me pa-|* * * * ce, ma|
 F2 F2 G4 | G4 A4- | A2 G2 F4 | D4 E4 | ^F2 F2 F2 F2 | G4 G4 | A6 G2 | F4 D4 | E8 | ^F8 |] %38
w: che sem- pr'ar-|da con|_ tua vi-|va fa-|ce, ma che sem-|pr'ar- da|con tua|vi- va|fa-|ce.|
V:3
 f8 | e2 e2 f4 | e4 d4- | d4 c4 | d6 c2 | _B8 | c4 d4 | G4 _B4- | B4 A4 | _B4 z2 c2 | c2 c4 g2- | %11
w: A-|mor per qual|ca- gion|_ mi|mand' ia|ter-|ra, mi|mand' ia|_ ter-|ra, se|sai te son|
 g2 f2 e4 | f4 z2 d2 | d2 d2 e4 | ^f4 g2 e2 | f2 e2 g4 | c2 e2 ^f2 g2 | e2 f4 e2 | a2 a2 g2 g2 | %19
w: _ fe- de-|le, e|bra- mo pa-|ce mi ri-|trov' in guer-|ra, e mi ri-|trov' in guer-|ra, di te che|
 g4 f4 | e4 d4 | z8 | z2 c4 B2- | B2 e4 d2 | c4 B4 | A2 d4 c2- | c2 f2 e2 f2 | d4 e2 A2 | %28
w: sei cru-|de- le,||di te|che sei cru-|de- *|le, ne voi|_ sia per me|pa- ce, ma|
 d2 d2 d4 | e4 f4- | f2 d2 c4 | d2 d3 ^c/B/ c2 | d2 A2 d2 d2 | d4 e4 | f6 d2 | c4 d2 d2- | %36
w: che sem- pr'ar-|da con|_ tua vi-|va fa- * * *|ce, ma che sem-|pr'ar- da|con tua|vi- va fa-|
 d2 ^cB c4 | d8 |] %38
w: |ce.|
V:4
 D8 | A4 z2 d2 | c4 G4 | A4 A4 | _B6 A2 | G8 | F4 D4 | _E6 D2 | C8 |"^b" B,4 z2 F2 | E2 F2 c4 | %11
w: A-|mor per|qual ca-|gion mi|mand' ia|ter-|ra, mi|mand' ia|ter-|ra, se|sai te son|
 G4 A4 | D4 z2 D2 | G2 G2 E4 | D4 z4 | z8 |"^#" z2 c2 d2 B2 | c2 A2 c4 | F4 z4 | z8 | z8 | %21
w: fe- de-|le, e|bra- mo pa-|ce||e mi ri-|trov' in guer-|ra,|||
 z2 F2 E2 A2 | G2 C2 G4 | E8- | E8 | z2 D2 A4- | A2 F2 c2 d2 | _B4 A4 | z2 D2 G2 G2 | C4 F2 F2- | %30
w: di te che|sei cru- de-|le,|_|ne voi|_ sia per me|pa- ce,|ma sem- pr'ar-|da con tua|
 F2 G2 A4 |"^b" B4 A4 | D4 z2 D2 | G2 G2 C4 | F2 F4 G2 |"^b" A4 B4 | A8 | D8 |] %38
w: _ vi- va|fa- *|ce, ma|che sem- pr'ar-|da con tua|vi- va|fa-|ce.|

